X: 23357
T: Leitrim Fancy, The
R: jig
M: 6/8
K: Dmajor
GBG FAF|EEB BAB|GBG AGF|DFA ADF|
GBG FFd|EGB BAB|GAB dBG|ABG FDF||
GGB FAD|EGB BAB|GBG AAG|FDA DEF|
GBG AFd|EGB BAB|GAB dBG|ABG FDF||
GGA BGd|eGB dAF|GDG EFG|AAG FDF|
GGA Bdd|edB def|ged BGG|ABG FDF||
GAB dBe|edB dAF|GAB ddG|ABG FDF|
GAB dBd|edB def|gfe dgG|AdG FDF||GBG FAF|E6||

